!!!COM: Gabriel Faure/
!!!CNT: Francais
!!!TXO: Francais
!!!OTL: "La rose (Ode anacre/ontique)"
!!!LYR: Leconte de Lisle
!!!OPR: 
!!!OPS: Op. 51
!!!ONM: No. 4
!!!ENC: Emily Thomas
!!!YOR: CD Sheet Music French Art Songs, The Ultimate Collection
!!!YOR: CD Sheet Music, LLC 2003
!!!ODT: 1890/
!!NB: Vocal melody and text encoded.
**kern	**silbe
=1	=1
*clefG2	*
*k[b-e-a-]	*
*M3/4	*
*MM[Andante]	*
2.r	.
=2	=2
4r	.
4r	.
8r	.
{16b-	{Je
16b-	di-
=3	=3
8.ee-	-rai
16dd	la
8.cc	Rose
16g	aux
8f	plis
16g	gra-
16a	-ci-
=4	=4
2b-}	-eux.}
8r	.
{8b-	{La
=5	=5
8dd	Rose
16cc	est
16b-	le
8an	soufflÈ
16d	em-
16e-	-bau-
8.f	-me/
16g	des
=6	=6
2a-}	Dieux,}
{8a-	{Le
8b-	plus
=7	=7
8.cc-	cher
16g-	son
8.ee-	ci
16dd-	des
8cc-	Mu-
16g-	-ses
16a-	di-
=8	=8
4b-	-vi-
4b-}	-nes!}
8r	.
{16b-	{Je
16b-	di-
=9	=9
8.ddn	-rai
16ccn	ta
8.b-	gloire
16cc	o\
8a-	char-
16g-	-me
16a-	des
=10	=10
2b-}	yeux,}
8r	.
{8b-	{O^
=11	=11
8ddn	fleur
16cc	de
16dd	Ky-
4b-	-pris,
16a-	rei-
16gn	-ne
16a-	des
16b-	col-
=12	=12
4cc	-li-
4.e-}	-nes!}
8r	.
=13	=13
{8dd-	{Tu
8dd-	t'e/-
8.cc	-pa-
16cc	-nou-
8b-	-is
16a-	en-
16b-	-tre
=14	=14
8cc	les
8g	beaux
8.a-	doigts
16b-	de
[4cc	l'Au-
=15	=15
12cc]	-be
12b-	e/-
12a-	-car-
8.g	-tant
16g	les
8f	com-
16e-	-bres
16f	mo-
=16	=16
2g	-ro-
4g}	-ses:}
=17	=17
8r	.
{8e-	{L'air
8a-	bleu
16a-	devi-
16a-	-ent
8.cc	rose
16e-	et
=18	=18
8an	ro-
16an	-se
16an	les
4.cc}	bois;}
{8cc	{La
=19	=19
8dd	bouche
16cc	et
16b-	le
8.g	sein
16g	dees
8an	vier-
16g	-ges
16an	sont
=20	=20
4b-	ro-
4b-}	-ses!}
8r	.
{8b-	{Heu-
=21	=21
8ee-	-ren-
16dd	-se
16dd	la
8.cc	vierge
16g	aux
8f	bras
16g	ar-
16a-	-ron-
=22	=22
[2b-	-dis
8b-]	|
8b-	Qui
=23	=23
12dd-	dans
12cc	les
12b-	bal-
8a-	-liers
8f	hu-
8e-	mi-
16f	-des
16g-	te
=24	=24
4a-	ceuil-
4a-}	-le!}
8r	.
{8a-	{Heu-
=25	=25
12a-	-reux
12gn	le
12f	front
4.g	jeune
8b-	ou\
=26	=26
12a-	tu
12g	re-
12f	-splen0
4.g}	-dis!}
{8g	{Heu-
=27	=27
12dd-	-reu-
12cc	-se
12b-	la
8a-	coupe
8cc	ou\
8ee-	na-
16ddn	-ge
16cc	ta
=28	=28
4dd	feuil-
4.b-}	-le!}
8r	.
=29	=29
2.r	.
=30	=30
4r	.
4r	.
{8f#	{Ruis-
8f#	-se-
=31	=31
8bn	-lante
8cc#	en-
4.b-	-cor
8f#	du
=32	=32
12an	flot
12g#	pa-
12f#	-ter-
2f#}	-nel.}
=33	=33
4r	.
4r	.
{8f#	{Quand
8f#	de
=34	=34
8bn	la
8cc#	mer
2cc#	bleue
=35	=35
8dd#	A-
8bn	-phro-
8f#	-dite
8g#	e/-
8f#	-clo-
8f#}	-se}
=36	=36
8r	.
{8f#	{E-
8.an	-tin-
16an	-ce-
4g#	-la
=37	=37
4f#	nue
8dd#	aux
8dd#	clar-
8.cc#	-te/s
16cc#	du
=38	=38
[2een	ciel,
8een]}	|}
{8een	{La
=39	=39
4een	ter-
8.ee-	-re
16ee-	ja-
4ddn	-louse
=40	=40
8dd	en-
8bn	-fan-
4.bn	-ta
8ccn	la
=41	=41
2.dd	ro-
=42	=42
4.dd}	-se:}
8r	.
{8dd	{Et
8dd	l'O-
=43	=43
4.ee-	-lympe
8dd	en-
[4cc	-tier,
=44	=44
8cc]	|
8ff	d'a-
4ee-	-mour
8dd	trans-
8cc	-por-
=45	=45
2.b-}	-te/,}
=46	=46
{8.ff	{Sa-
16ff	-lu-
4.ee-	-a
8dd	la
=47	=47
[2b-	fleur
8b-]	|
8b-	a-
=48	=48
4cc	-vec
4.dd	la
8ee-	Beau-
=49	=49
[2.ee-	-te/!
=50	=50
4ee-_	|
8ee-]}	|}
8r	.
4r	.
==	==
*-	*-
